X:107
T:Smash The Windows
M:6/8
L:1/8
R:jig
K:Dmaj
|: "D" D(ED) F2A | d2f "A" e(cA) | "G" G2B "D" F2A | "A" E2F "A7" G(FE) |
"D" D(ED) F2A | d2f "A" e(cA) | "G" Bgf "A" edc |1 "D" d3 d3 :|2 "D" d3 ud2 uf |
|: "D" a2f d2e | f2g a(gf) | "A" g2e c2d | e2f g(fe) |
|1 "D" a2f d2e | f2g a(gf) | "A" g2e c(de) | "D" d3 ud2 uf :|
:|2 "D" f2 d "A" g2 e | "D" a2 e "G" b2 g | "D" fed "A" cde | "D" d3 d3 |]
N:Sarah Finnemore

